img/chrome.svg

<svg viewBox="0 0 92 56" xmlns="http://www.w3.org/2000/svg"><g fill="none" fill-rule="evenodd"><path d="m90.86 56c.715-3.221 1.103-6.564 1.103-10 0-25.405-20.594-46-45.999-46-25.406 0-46 20.595-46 46 0 3.436.388 6.779 1.102 10h89.79" fill="#e14c40"/><path d="m63.27 56c1.705-2.944 2.698-6.353 2.698-10 0-11.05-8.955-20-20-20-11.05 0-20 8.954-20 20 0 3.647.993 7.06 2.698 10h34.605" fill="#fff"/><path d="m87.39 26h-41.4c11.04.011 19.981 8.96 19.981 19.999 0 3.647-.993 7.06-2.698 10h27.594c.715-3.221 1.103-6.564 1.103-10 0-7.171-1.651-13.951-4.58-19.999" fill="#ffd24d"/><path d="m28.631 56l-20.866-35.602c-4.919 7.319-7.798 16.12-7.798 25.602 0 3.436.388 6.779 1.102 10h27.562" fill="#0daa61"/><path d="m58.45 56c2.198-2.74 3.52-6.214 3.52-10 0-8.837-7.163-16-15.999-16-8.837 0-16 7.163-16 16 0 3.786 1.322 7.26 3.52 10h24.959" fill="#4388fd"/></g></svg>

<?xml version="1.0" encoding="UTF-8" standalone="no"?>
<svg width="92px" height="56px" viewBox="0 0 92 56" version="1.1" xmlns="http://www.w3.org/2000/svg" xmlns:xlink="http://www.w3.org/1999/xlink" xmlns:sketch="http://www.bohemiancoding.com/sketch/ns">
    <!-- Generator: Sketch 3.0.4 (8053) - http://www.bohemiancoding.com/sketch -->
    <title>chrome</title>
    <desc>Created with Sketch.</desc>
    <defs></defs>
    <g id="Page-1" stroke="none" stroke-width="1" fill="none" fill-rule="evenodd" sketch:type="MSPage">
        <g id="chrome" sketch:type="MSArtboardGroup">
            <path d="M90.863,56 C91.578,52.779 91.966,49.436 91.966,46 C91.966,20.595 71.372,0 45.967,0 C20.561,0 -0.0329999881,20.595 -0.0329999881,46 C-0.0329999881,49.436 0.355000012,52.779 1.06900001,56 L90.863,56" id="Fill-1" fill="#E14C40" sketch:type="MSShapeGroup"></path>
            <path d="M63.269,56 C64.974,53.056 65.967,49.647 65.967,46 C65.967,34.954 57.012,26 45.967,26 C34.921,26 25.966,34.954 25.966,46 C25.966,49.647 26.959,53.056 28.664,56 L63.269,56" id="Fill-2" fill="#FFFFFF" sketch:type="MSShapeGroup"></path>
            <path d="M87.386,26.001 L45.986,26.001 C57.023,26.012 65.967,34.961 65.967,46 C65.967,49.647 64.974,53.056 63.269,56 L90.863,56 C91.578,52.779 91.966,49.436 91.966,46 C91.966,38.829 90.315,32.049 87.386,26.001" id="Fill-3" fill="#FFD24D" sketch:type="MSShapeGroup"></path>
            <path d="M28.631,56 L7.76500001,20.398 C2.84600001,27.717 -0.0329999881,36.519 -0.0329999881,46 C-0.0329999881,49.436 0.355000012,52.779 1.06900001,56 L28.631,56" id="Fill-4" fill="#0DAA61" sketch:type="MSShapeGroup"></path>
            <path d="M58.446,56 C60.644,53.26 61.966,49.786 61.966,46 C61.966,37.163 54.803,30 45.967,30 C37.13,30 29.967,37.163 29.967,46 C29.967,49.786 31.289,53.26 33.487,56 L58.446,56" id="Fill-5" fill="#4388FD" sketch:type="MSShapeGroup"></path>
        </g>
    </g>
</svg>
